app/assets/images/id-card.svg

<?xml version="1.0" encoding="UTF-8"?>
<svg width="216" height="116" viewBox="0 0 216 116" xmlns="http://www.w3.org/2000/svg" version="1.1">
  <clipPath id="inner-bounds">
    <rect x="8" y="8" width="200" height="100" />
  </clipPath>
  <linearGradient id="line-gradient">
    <stop stop-color="#A8B6C6" offset="0%" />
    <stop stop-color="#5B616A" offset="50%" />
    <stop stop-color="#A8B6C6" offset="100%" />
  </linearGradient>
  <g clip-path="url(#inner-bounds)">
    <rect
      width="100%"
      height="100%"
      fill="#A8B6C6"
    />
    <rect
      x="-86"
      y="-50"
      width="100"
      height="216"
      opacity="0.1"
      fill="url(#line-gradient)"
      style="animation: card-loading 0.8s linear infinite"
    />
  </g>
  <style>
  /* lint-ignore */
  @keyframes card-loading {
    from { transform: rotate(30deg) translate(0, 0) }
    to { transform: rotate(30deg) translate(260px, -100px) }
  }
  </style>
  <path
    d="M206,0 C211.522847,-1.01453063e-15 216,4.4771525 216,10 L216,106 C216,111.522847 211.522847,116 206,116 L10,116 C4.4771525,116 6.76353751e-16,111.522847 0,106 L0,10 C-6.76353751e-16,4.4771525 4.4771525,1.01453063e-15 10,0 L206,0 Z M196.6,65.6 L174.6,65.6 C171.838576,65.6 169.6,67.8385763 169.6,70.6 L169.6,70.6 L169.6,96.6 C169.6,99.3614237 171.838576,101.6 174.6,101.6 L174.6,101.6 L196.6,101.6 C199.361424,101.6 201.6,99.3614237 201.6,96.6 L201.6,96.6 L201.6,70.6 C201.6,67.8385763 199.361424,65.6 196.6,65.6 L196.6,65.6 Z M81.4,14.4 L19.4,14.4 C16.6385763,14.4 14.4,16.6385763 14.4,19.4 L14.4,19.4 L14.4,96.6 C14.4,99.3614237 16.6385763,101.6 19.4,101.6 L19.4,101.6 L81.4,101.6 C84.1614237,101.6 86.4,99.3614237 86.4,96.6 L86.4,96.6 L86.4,19.4 C86.4,16.6385763 84.1614237,14.4 81.4,14.4 L81.4,14.4 Z M121,84.8 L103.8,84.8 C102.143146,84.8 100.8,86.1431458 100.8,87.8 L100.8,87.8 L100.8,89.8 C100.8,91.4568542 102.143146,92.8 103.8,92.8 L103.8,92.8 L121,92.8 C122.656854,92.8 124,91.4568542 124,89.8 L124,89.8 L124,87.8 C124,86.1431458 122.656854,84.8 121,84.8 L121,84.8 Z M152.2,84.8 L135,84.8 C133.343146,84.8 132,86.1431458 132,87.8 L132,87.8 L132,89.8 C132,91.4568542 133.343146,92.8 135,92.8 L135,92.8 L152.2,92.8 C153.856854,92.8 155.2,91.4568542 155.2,89.8 L155.2,89.8 L155.2,87.8 C155.2,86.1431458 153.856854,84.8 152.2,84.8 L152.2,84.8 Z M152.2,68.8 L103.8,68.8 C102.143146,68.8 100.8,70.1431458 100.8,71.8 L100.8,71.8 L100.8,73.8 C100.8,75.4568542 102.143146,76.8 103.8,76.8 L103.8,76.8 L152.2,76.8 C153.856854,76.8 155.2,75.4568542 155.2,73.8 L155.2,73.8 L155.2,71.8 C155.2,70.1431458 153.856854,68.8 152.2,68.8 L152.2,68.8 Z M160.2,52.8 L103.8,52.8 C102.143146,52.8 100.8,54.1431458 100.8,55.8 L100.8,55.8 L100.8,57.8 C100.8,59.4568542 102.143146,60.8 103.8,60.8 L103.8,60.8 L160.2,60.8 C161.856854,60.8 163.2,59.4568542 163.2,57.8 L163.2,57.8 L163.2,55.8 C163.2,54.1431458 161.856854,52.8 160.2,52.8 L160.2,52.8 Z M144.2,36.8 L103.8,36.8 C102.143146,36.8 100.8,38.1431458 100.8,39.8 L100.8,39.8 L100.8,41.8 C100.8,43.4568542 102.143146,44.8 103.8,44.8 L103.8,44.8 L144.2,44.8 C145.856854,44.8 147.2,43.4568542 147.2,41.8 L147.2,41.8 L147.2,39.8 C147.2,38.1431458 145.856854,36.8 144.2,36.8 L144.2,36.8 Z M198.6,36.8 L158.2,36.8 C156.543146,36.8 155.2,38.1431458 155.2,39.8 L155.2,39.8 L155.2,41.8 C155.2,43.4568542 156.543146,44.8 158.2,44.8 L158.2,44.8 L198.6,44.8 C200.256854,44.8 201.6,43.4568542 201.6,41.8 L201.6,41.8 L201.6,39.8 C201.6,38.1431458 200.256854,36.8 198.6,36.8 L198.6,36.8 Z M197.6,14.4 L104.8,14.4 C102.590861,14.4 100.8,16.190861 100.8,18.4 L100.8,18.4 L100.8,24.8 C100.8,27.009139 102.590861,28.8 104.8,28.8 L104.8,28.8 L197.6,28.8 C199.809139,28.8 201.6,27.009139 201.6,24.8 L201.6,24.8 L201.6,18.4 C201.6,16.190861 199.809139,14.4 197.6,14.4 L197.6,14.4 Z"
    fill="#EBF3FA"
  />
</svg>

<svg width="216" height="116" xmlns="http://www.w3.org/2000/svg"><clipPath id="inner-bounds"><path d="M8 8h200v100H8z"/></clipPath><linearGradient id="line-gradient"><stop stop-color="#A8B6C6" offset="0%"/><stop stop-color="#5B616A" offset="50%"/><stop stop-color="#A8B6C6" offset="100%"/></linearGradient><g clip-path="url(#inner-bounds)"><rect width="100%" height="100%" fill="#A8B6C6"/><path opacity=".1" fill="url(#line-gradient)" style="animation:card-loading 0.8s linear infinite" d="M-86-50H14v216H-86z"/></g><style>/*!lint-ignore*/@keyframes card-loading{from{transform:rotate(30deg) translate(0, 0)}to{transform:rotate(30deg) translate(260px, -100px)}}</style><path d="M206 0c5.523 0 10 4.477 10 10v96c0 5.523-4.477 10-10 10H10c-5.523 0-10-4.477-10-10V10C0 4.477 4.477 0 10 0h196zm-9.4 65.6h-22a5 5 0 00-5 5v26a5 5 0 005 5h22a5 5 0 005-5v-26a5 5 0 00-5-5zM81.4 14.4h-62a5 5 0 00-5 5v77.2a5 5 0 005 5h62a5 5 0 005-5V19.4a5 5 0 00-5-5zM121 84.8h-17.2a3 3 0 00-3 3v2a3 3 0 003 3H121a3 3 0 003-3v-2a3 3 0 00-3-3zm31.2 0H135a3 3 0 00-3 3v2a3 3 0 003 3h17.2a3 3 0 003-3v-2a3 3 0 00-3-3zm0-16h-48.4a3 3 0 00-3 3v2a3 3 0 003 3h48.4a3 3 0 003-3v-2a3 3 0 00-3-3zm8-16h-56.4a3 3 0 00-3 3v2a3 3 0 003 3h56.4a3 3 0 003-3v-2a3 3 0 00-3-3zm-16-16h-40.4a3 3 0 00-3 3v2a3 3 0 003 3h40.4a3 3 0 003-3v-2a3 3 0 00-3-3zm54.4 0h-40.4a3 3 0 00-3 3v2a3 3 0 003 3h40.4a3 3 0 003-3v-2a3 3 0 00-3-3zm-1-22.4h-92.8a4 4 0 00-4 4v6.4a4 4 0 004 4h92.8a4 4 0 004-4v-6.4a4 4 0 00-4-4z" fill="#EBF3FA"/></svg>
